X:418
T: "Der Gaertner"
N: Z1098
O: Europa, Mitteleuropa, Deutschland, Niederrhein
R: Romanze, Ballade, Tod
M: 4/4
L: 1/8
K: F
C2 | F3FFGAB | A4G2
G2 | G3GGABc | A2C2F2
AB | c3ccBdc | c4B2
GA | B3GBGcB | B4A2
cB | A2A2G2G2 | FCFGA2
cB | A2A2G2G2 | F4z2

